X:330
T:AULDLNG8- Overture to Rossina, 1783
O:england
Q:1/4=120
L:1/8
M:2/4
K:G
G3/2A/GB|AGAB|GGGB|d3g|GGGB|AGAB|G/E3/2E3/2D/|G3||f|\
d3/2B/ BG|AG Ae|d3/2B/ BG|B3e|d3/2B/ BG|A3/2G/ AB|\
G3/2E/ E3/2D/|G3||]


